symbolic/22x22/mimetypes/application-x-font-ttf.svg

<svg xmlns="http://www.w3.org/2000/svg" width="22" height="22" version="1">
 <g transform="translate(-1,-1)">
  <path style="opacity:0.2" d="M 5,2.5 C 4.446,2.5 4,2.946 4,3.5 V 21.5 C 4,22.054 4.446,22.5 5,22.5 H 19 C 19.554,22.5 20,22.054 20,21.5 V 8.5 L 14.5,8 14,2.5 Z"/>
  <path style="fill:#a7a7a7" d="M 5,2 C 4.446,2 4,2.446 4,3 V 21 C 4,21.554 4.446,22 5,22 H 19 C 19.554,22 20,21.554 20,21 V 8 L 14.5,7.5 14,2 Z"/>
  <path style="opacity:0.2;fill:#ffffff" d="M 5,2 C 4.446,2 4,2.446 4,3 V 3.5 C 4,2.946 4.446,2.5 5,2.5 H 14 L 19.5,8 H 20 L 14,2 Z"/>
  <path style="opacity:0.2" d="M 14,2.5 V 7.5 C 14,8.0523 14.448,8.5 15,8.5 H 20 Z"/>
  <path style="fill:#c0c0c0" d="M 14,2 V 7 C 14,7.5523 14.448,8 15,8 H 20 Z"/>
  <path style="opacity:0.1" d="M 16.5,11 C 15.678,11.45 13.985,11.544 12.383,11.525 11.126,11.532 8.6719,11.271 8.2502,12.5 8.4095,12.281 11.332,11.284 11.038,12.522 10.692,13.53 10.074,14.595 9.5445,15.507 9.0298,15.546 8.3169,15.568 7.875,15.875 7.99,15.804 8.9702,15.61 9.363,15.824 8.7618,16.818 8.1415,17.623 7.7003,18.705 7.5789,19.077 7.3052,19.675 7.7254,19.945 8.0819,20.111 7.8322,19.872 7.9765,19.639 8.5811,18.34 9.4136,17.245 10.173,16.038 10.617,16.223 11.048,16.565 11.531,16.618 12.19,16.696 13.326,15.765 13.5,15.125 12.75,15.688 11.456,15.513 10.6,15.494 L 12.447,12.423 C 12.629,12.479 12.95,12.494 13.481,12.5 14.717,12.535 16.299,12.304 16.5,11 Z"/>
  <path style="fill:#4f4f4f" d="M 16.5,10.5 C 15.678,10.95 13.985,11.044 12.383,11.025 11.126,11.032 8.6719,10.771 8.2502,12 8.4095,11.781 11.332,10.784 11.038,12.022 10.692,13.03 10.074,14.095 9.5445,15.007 9.0298,15.046 8.3169,15.068 7.875,15.375 7.99,15.304 8.9702,15.11 9.363,15.324 8.7618,16.318 8.1415,17.123 7.7003,18.205 7.5789,18.577 7.3052,19.175 7.7254,19.445 8.0819,19.611 7.8322,19.372 7.9765,19.139 8.5811,17.84 9.4136,16.745 10.173,15.538 10.617,15.723 11.048,16.065 11.531,16.118 12.19,16.196 13.326,15.265 13.5,14.625 12.75,15.188 11.456,15.013 10.6,14.994 L 12.447,11.923 C 12.629,11.979 12.95,11.994 13.481,12 14.717,12.035 16.299,11.804 16.5,10.5 Z"/>
 </g>
</svg>

<svg xmlns="http://www.w3.org/2000/svg" width="22" height="22" version="1"><path style="opacity:.2" d="M5 2.5c-.554 0-1 .446-1 1v18c0 .554.446 1 1 1h14c.554 0 1-.446 1-1v-13L14.5 8 14 2.5z" transform="translate(-1 -1)"/><path style="fill:#a7a7a7" d="M5 2c-.554 0-1 .446-1 1v18c0 .554.446 1 1 1h14c.554 0 1-.446 1-1V8l-5.5-.5L14 2z" transform="translate(-1 -1)"/><path style="opacity:.2;fill:#fff" d="M5 2c-.554 0-1 .446-1 1v.5c0-.554.446-1 1-1h9L19.5 8h.5l-6-6z" transform="translate(-1 -1)"/><path style="opacity:.2" d="M14 2.5v5a1 1 0 0 0 1 1h5z" transform="translate(-1 -1)"/><path style="fill:silver" d="M14 2v5a1 1 0 0 0 1 1h5z" transform="translate(-1 -1)"/><path style="opacity:.1" d="M16.5 11c-.822.45-2.515.544-4.117.525-1.257.007-3.711-.254-4.133.975.16-.219 3.082-1.216 2.788.022-.346 1.008-.964 2.073-1.494 2.985-.514.039-1.227.061-1.669.368.115-.071 1.095-.265 1.488-.051-.601.994-1.221 1.799-1.663 2.881-.121.372-.395.97.025 1.24.357.166.107-.073.252-.306.604-1.299 1.437-2.394 2.196-3.601.444.185.875.527 1.358.58.659.078 1.795-.853 1.969-1.493-.75.563-2.044.388-2.9.369l1.847-3.071c.182.056.503.071 1.034.077 1.236.035 2.818-.196 3.019-1.5z" transform="translate(-1 -1)"/><path style="fill:#4f4f4f" d="M16.5 10.5c-.822.45-2.515.544-4.117.525-1.257.007-3.711-.254-4.133.975.16-.219 3.082-1.216 2.788.022-.346 1.008-.964 2.073-1.494 2.985-.514.039-1.227.061-1.669.368.115-.071 1.095-.265 1.488-.051-.601.994-1.221 1.799-1.663 2.881-.121.372-.395.97.025 1.24.357.166.107-.073.252-.306.604-1.299 1.437-2.394 2.196-3.601.444.185.875.527 1.358.58.659.078 1.795-.853 1.969-1.493-.75.563-2.044.388-2.9.369l1.847-3.071c.182.056.503.071 1.034.077 1.236.035 2.818-.196 3.019-1.5z" transform="translate(-1 -1)"/></svg>
